X: 1
T:Hurricane, The
M:4/4
L:1/8
Q:250
R:reel
K:AMaj
d|:cABG A2ED|CEAc BB,B,d|cABG Aaga|1(3fga ed cAAd:|2(3fga ed cAAa|
!:gaea cAAa|gaea fBBa|gaea ABcd|1(3edc dB cAAa:|2(3edc dB cAAe||
!ac'e'c' aecA|GBEB GBEe|ac'e'c' aecA|defg aAAe|
!ac'e'c' aecA|GBEB GBEd|cABG Aaga|(3fga ed cAA2|
!:cfaf cfaf|efge Bege|fgaf cfaf|gbeg affc|
!fgaf cfaf|efge Bege|aefd ceaf|1ecdB cAAB:|2ecdB cAAd||
